X: 263
T: Chinquapin Hunting [1]
B: canberra pickers and fiddlers
B: tunes
M:C
L:1/8
R: reel
Q: 1/4=100
K:A
V:1 
"A"e3(e "D"fe)[Ed]f | "A"(ef)e(e "D"fe)[Ed]f | "A"e3(e "D"fe)(fg) | afaf e2e2 |\
(3cdc A2 |
"A"A3(e "D"fe)df | "A"e(fe)(e "D"fe)df | "A"e3(e "D"fe)fg | (af)(af) e2e2 |\
(3cdc A2 ||
"A"A3B A2A2 | "D"(FE)DD (ED)F2 | "A"A3B A2 AF | "E"A,2 A,B, "A"C2E2 | 
A3B A2A2 | "D"(FED)D (ED)F2 | "A"A3B A2 AF | "E"A,2 A,B, "A"C(E E2) || 
"D"F2 {E}F3 F ED | "E"B,2 EB, "A"C2 EC | "D"F2 {E}F3 F ED | "E"B2 [EA]B, "A"C2 [EA]C|
"D"F2 {E}F3F ED | "E"B2 EB, "A"C2 EC | "D"F2 {E}F3F ED | "E"B,2 ED "A"C(A, A,2) ||
% abcbook-tune_id 63ae8f1cf6599c7951a30172
% abcbook-tune_composer_id 
% abcbook-link-0 https://www.youtube.com/watch?v=TYS7xyNW8Mc
% abcbook-link-start-at-0 12
% abcbook-boost 0
% abcbook-difficulty 0
% abcbook-tags canberra pickers and fiddlers,old time tunes,steve ryan,© free
% abcbook-tablature 
% abcbook-transpose 
% abcbook-tuning AEAE
% abcbook-lastupdated 1677371034099
% abcbook-src-url https://tunebook.net/scrape/tunes.abc
% abcbook-soundfonts 
% abcbook-repeats 1


